src/assets/svg/icons/info-circle.svg

<svg width="36" height="35" viewBox="0 0 36 35" fill="none" xmlns="http://www.w3.org/2000/svg">
<path d="M18 0.0625C8.36719 0.0625 0.5625 7.9375 0.5625 17.5C0.5625 27.1328 8.36719 34.9375 18 34.9375C27.5625 34.9375 35.4375 27.1328 35.4375 17.5C35.4375 7.9375 27.5625 0.0625 18 0.0625ZM18 7.79688C19.6172 7.79688 20.9531 9.13281 20.9531 10.75C20.9531 12.4375 19.6172 13.7031 18 13.7031C16.3125 13.7031 15.0469 12.4375 15.0469 10.75C15.0469 9.13281 16.3125 7.79688 18 7.79688ZM21.9375 25.6562C21.9375 26.1484 21.5156 26.5 21.0938 26.5H14.9062C14.4141 26.5 14.0625 26.1484 14.0625 25.6562V23.9688C14.0625 23.5469 14.4141 23.125 14.9062 23.125H15.75V18.625H14.9062C14.4141 18.625 14.0625 18.2734 14.0625 17.7812V16.0938C14.0625 15.6719 14.4141 15.25 14.9062 15.25H19.4062C19.8281 15.25 20.25 15.6719 20.25 16.0938V23.125H21.0938C21.5156 23.125 21.9375 23.5469 21.9375 23.9688V25.6562Z" fill="#073D3D"/>
</svg>

<svg width="36" height="35" fill="none" xmlns="http://www.w3.org/2000/svg"><path d="M18 .063C8.367.063.562 7.938.562 17.5c0 9.633 7.805 17.438 17.438 17.438 9.563 0 17.438-7.805 17.438-17.438C35.438 7.937 27.561.062 18 .062zm0 7.734a2.97 2.97 0 0 1 2.953 2.953c0 1.688-1.336 2.953-2.953 2.953-1.688 0-2.953-1.265-2.953-2.953 0-1.617 1.265-2.953 2.953-2.953zm3.938 17.86a.855.855 0 0 1-.844.843h-6.188c-.492 0-.844-.352-.844-.844V23.97c0-.422.352-.844.844-.844h.844v-4.5h-.844c-.492 0-.844-.352-.844-.844v-1.687c0-.422.352-.844.844-.844h4.5c.422 0 .844.422.844.844v7.031h.844c.422 0 .843.422.843.844v1.687z" fill="#073D3D"/></svg>
